svgs/sharp-light/money-check.svg

<svg xmlns="http://www.w3.org/2000/svg" viewBox="0 0 576 512"><!--! Font Awesome Pro 6.6.0 by @fontawesome - https://fontawesome.com License - https://fontawesome.com/license (Commercial License) Copyright 2024 Fonticons, Inc. --><path d="M32 96l0 320 512 0 0-320L32 96zM0 64l32 0 512 0 32 0 0 32 0 320 0 32-32 0L32 448 0 448l0-32L0 96 0 64zM256 224l0 32L96 256l0-32 160 0zM96 320l384 0 0 32L96 352l0-32zM352 176l0 64 96 0 0-64-96 0zm-32-32l32 0 96 0 32 0 0 32 0 64 0 32-32 0-96 0-32 0 0-32 0-64 0-32z"/></svg>

<svg xmlns="http://www.w3.org/2000/svg" viewBox="0 0 576 512"><!--! Font Awesome Pro 6.4.2 by @fontawesome - https://fontawesome.com License - https://fontawesome.com/license (Commercial License) Copyright 2023 Fonticons, Inc. --><path d="M32 96V416H544V96H32zM0 64H32 544h32V96 416v32H544 32 0V416 96 64zM256 224v32H96V224H256zM96 320H480v32H96V320zM352 176v64h96V176H352zm-32-32h32 96 32v32 64 32H448 352 320V240 176 144z"/></svg>
